X:18269
T:Verdant Braes Of Skreen, The 
S:Comando list, 7/97, Peter Freitag
M:4/4
Q:126
K:G
G2 B2| A3 FGAGF| D2 GB d2 B2| G2 AB c2 Bc| d2 B2 A3 F|GAGF D2 G2|\
B2 A3 FGA|GF D2 GB d2| B2 ABcA G2| B2 BcdcBc|dBABcA G2
